src/svg/icon_more.svg

<svg clip-rule="evenodd" fill-rule="evenodd" stroke-linejoin="round" stroke-miterlimit="2" viewBox="0 0 24 24" xmlns="http://www.w3.org/2000/svg"><path d="m11.998 2c5.517 0 9.997 4.48 9.997 9.998 0 5.517-4.48 9.997-9.997 9.997-5.518 0-9.998-4.48-9.998-9.997 0-5.518 4.48-9.998 9.998-9.998zm0 1.5c-4.69 0-8.498 3.808-8.498 8.498s3.808 8.497 8.498 8.497 8.497-3.807 8.497-8.497-3.807-8.498-8.497-8.498zm2.502 8.495c0-.69.56-1.25 1.25-1.25s1.25.56 1.25 1.25-.56 1.25-1.25 1.25-1.25-.56-1.25-1.25zm-3.75 0c0-.69.56-1.25 1.25-1.25s1.25.56 1.25 1.25-.56 1.25-1.25 1.25-1.25-.56-1.25-1.25zm-3.75 0c0-.69.56-1.25 1.25-1.25s1.25.56 1.25 1.25-.56 1.25-1.25 1.25-1.25-.56-1.25-1.25z"/></svg>

<?xml version="1.0" encoding="utf-8"?>
<!-- Generator: Adobe Illustrator 26.4.1, SVG Export Plug-In . SVG Version: 6.00 Build 0)  -->
<svg version="1.1" id="레이어_1" xmlns="http://www.w3.org/2000/svg" xmlns:xlink="http://www.w3.org/1999/xlink" x="0px"
	 y="0px" viewBox="0 0 24 24" style="enable-background:new 0 0 24 24;" xml:space="preserve">
<style type="text/css">
	.st0{fill-rule:evenodd;clip-rule:evenodd;fill:#FFFFFF;}
</style>
<path class="st0" d="M12,2c5.5,0,10,4.5,10,10c0,5.5-4.5,10-10,10C6.5,22,2,17.5,2,12C2,6.5,6.5,2,12,2z M12,3.5
	c-4.7,0-8.5,3.8-8.5,8.5s3.8,8.5,8.5,8.5s8.5-3.8,8.5-8.5S16.7,3.5,12,3.5z M14.5,12c0-0.7,0.6-1.2,1.2-1.2c0.7,0,1.2,0.6,1.2,1.2
	s-0.6,1.2-1.2,1.2S14.5,12.7,14.5,12z M10.8,12c0-0.7,0.6-1.2,1.2-1.2s1.2,0.6,1.2,1.2s-0.6,1.2-1.2,1.2S10.8,12.7,10.8,12z M7,12
	c0-0.7,0.6-1.2,1.2-1.2s1.2,0.6,1.2,1.2s-0.6,1.2-1.2,1.2S7,12.7,7,12z"/>
</svg>
